ScriptCreateDialog.svg

<svg height="16" viewBox="0 0 16 16" width="16" xmlns="http://www.w3.org/2000/svg"><g fill="#e0e0e0"><path d="m3 1c-1.1046 0-2 .8954-2 2v1h14v-1c0-1.1046-.89543-2-2-2zm9 1h1v1h-1zm-11 3v8c0 1.1046.89543 2 2 2h10c1.1046 0 2-.8954 2-2v-8zm5.5722656 1h3.9980464c.631021.0000195 1.142559.5115576 1.142579 1.1425781v1.1425781h-3.9980472v-1.1425781c0-.6310659-.5115295-1.1425781-1.1425782-1.1425781zm0 .5722656c.3155215 0 .5703125.2558199.5703125.5703125v1.7148438h2.8574219v3.9980471c-.00002.63102-.511558 1.142558-1.1425781 1.142578h-4c.6310487 0 1.1425781-.511529 1.1425781-1.142578v-5.7128909c0-.3157599.2567441-.5703125.5722656-.5703125zm-2.2851562 5.1406254h1.1425781v1.142578c0 .315522-.2567441.572265-.5722656.572265s-.5703177-.268684-.5703177-.572291z"/><circle cx="-23.915255" cy="3.118624" r="0"/></g></svg>

<?xml version="1.0" encoding="UTF-8" standalone="no"?>
<svg
   xmlns:dc="http://purl.org/dc/elements/1.1/"
   xmlns:cc="http://creativecommons.org/ns#"
   xmlns:rdf="http://www.w3.org/1999/02/22-rdf-syntax-ns#"
   xmlns:svg="http://www.w3.org/2000/svg"
   xmlns="http://www.w3.org/2000/svg"
   xmlns:sodipodi="http://sodipodi.sourceforge.net/DTD/sodipodi-0.dtd"
   xmlns:inkscape="http://www.inkscape.org/namespaces/inkscape"
   inkscape:version="1.0 (4035a4fb49, 2020-05-01)"
   sodipodi:docname="ScriptCreateDialog.svg"
   id="svg8"
   version="1.1"
   width="16"
   viewBox="0 0 16 16"
   height="16">
  <metadata
     id="metadata14">
    <rdf:RDF>
      <cc:Work
         rdf:about="">
        <dc:format>image/svg+xml</dc:format>
        <dc:type
           rdf:resource="http://purl.org/dc/dcmitype/StillImage" />
      </cc:Work>
    </rdf:RDF>
  </metadata>
  <defs
     id="defs12" />
  <sodipodi:namedview
     inkscape:current-layer="svg8"
     inkscape:window-maximized="0"
     inkscape:window-y="0"
     inkscape:window-x="0"
     inkscape:cy="8.0623833"
     inkscape:cx="4.153648"
     inkscape:zoom="45.254834"
     showgrid="false"
     id="namedview10"
     inkscape:window-height="900"
     inkscape:window-width="1600"
     inkscape:pageshadow="2"
     inkscape:pageopacity="0"
     guidetolerance="10"
     gridtolerance="10"
     objecttolerance="10"
     borderopacity="1"
     bordercolor="#666666"
     pagecolor="#ffffff" />
  <g
     id="g6"
     fill="#e0e0e0">
    <path
       sodipodi:nodetypes="ssccsssccccccssssccccccccczccccccsszcsszcc"
       id="path2"
       d="M 3,1 C 1.8954,1 1,1.8954 1,3 V 4 H 15 V 3 C 15,1.8954 14.10457,1 13,1 Z m 9,1 h 1 V 3 H 12 Z M 1,5 v 8 c 0,1.1046 0.89543,2 2,2 h 10 c 1.1046,0 2,-0.8954 2,-2 V 5 Z m 5.5722656,1 h 3.9980464 c 0.631021,1.95e-5 1.142559,0.5115576 1.142579,1.1425781 V 8.2851562 H 7.7148438 V 7.1425781 C 7.7148438,6.5115122 7.2033143,6 6.5722656,6 Z m 0,0.5722656 c 0.3155215,0 0.5703125,0.2558199 0.5703125,0.5703125 V 8.8574219 H 10 v 3.9980471 c -2e-5,0.63102 -0.511558,1.142558 -1.1425781,1.142578 h -4 C 5.4884706,13.998047 6,13.486518 6,12.855469 V 7.1425781 C 6,6.8268182 6.2567441,6.5722656 6.5722656,6.5722656 Z M 4.2871094,11.712891 h 1.1425781 v 1.142578 c 0,0.315522 -0.2567441,0.572265 -0.5722656,0.572265 -0.3155215,0 -0.5703177,-0.268684 -0.5703177,-0.572291 z" />
    <circle
       id="circle4"
       r="0"
       cy="3.118624"
       cx="-23.915255" />
  </g>
</svg>
